X: 11
T: Match of the Day
M:4/4
R:reel
L:1/8
Z:added by Alf warnock alf0@rogers.com
K:G
D2 G2B2|"G"d3B B2B2|B2B4c2|d3B A2B2|"D7"c2D2 F2A2|
c3A A2A2|A2A4B2|c3A G2A2|"G"B2D2 G2B2|
d3B B2B2|B2B4c2|"G7"d3B c2d2|"C"e4 e2f2|
g2gfz fe2|"G"g2d2 d2e2|"D7"d2cBz BA2|"G"G2|]
% C:\aaa\EnglishCountry\ECD02.abc
